X:1
T: Maidie Logie Robertson
C:
R:Strathspey
Q: 128
K:A
M:4/4
L:1/16
|:e4 c3e ((3G2F2E2) A4|cA3 e3c ((3B2c2d2) ((3e2f2g2) |a4 e3c ((3B2G2E2) A4|ce3 d3c A4 a4|
e4 c3e ((3G2F2E2) A4|cA3 e3c ((3B2c2d2) ((3e2f2g2) |a4 e3c ((3B2G2E2) A4|ea3 b3g a8|
e8 a4 e4|c3e A3c E3A C4|d8 g4 d4|B3d G3B E3C D3B,|
e8 a4 e4|c3e A3c E3A C3E|((3G2F2E2) B4 ((3d2c2B2) e3E|A8 a8:|
